!!!OTL: Graf und Nonne (Die Nonne) Zu Frankfurt an der Bruecke
!!!ARE: Europa, Mitteleuropa, Deutschland (BRD), Nordrhein - Westfalen, Elberfeld
!!!YOR: 8, S. 290
!!    1845 aufgezeichnet
!!!SCT: Q1155H.
!!!YEM: Copyright 1995, estate of Helmut Schaffrath.
**kern
*ICvox
*Ivox
*M2/4
*k[f#]
*G:
{8d
=1
8.g
16d
8B
8d
=2
4g
8g}
{8b
=3
8.a
16g
8f#
8g
=4
4a
8r}
{16g
16a
=5
8b
8b
8b
8b
=6
8b
8cc
8dd}
{8b
=7
8dd
8a
8a
8a
=8
8a
8b
8cc}
{8dd
=9
8b
8b
16a
16g
16a
16b
=10
4g
8r}
==
!!!AGN: Liebes - Lied
!! Melodievergleich zu Q0155I., anderes Lied. Refrain in der vierten
!!    Zeile (z.T. sinnfreie Silben) . Vorletzten Takt rhythmisch
!!    korrigiert.
!!!ONB: ESAC (Essen Associative Code) Database: BALLADE
!!!AMT: simple duple
!!!AIN: vox
!!!EED: Helmut Schaffrath
!!!EEV: 1.0
*-
